Hatter-kde/actions/24/snap-text-baseline.svg

<svg xmlns="http://www.w3.org/2000/svg" viewBox="0 0 24 24">
  <defs id="defs3051">
    <style type="text/css" id="current-color-scheme">
      .ColorScheme-Text {
        color:#363636;
      }
      .ColorScheme-Highlight {
        color:#3daee9;
      }
      </style>
  </defs>
 <path 
     style="fill:currentColor;fill-opacity:1;stroke:none" 
     d="M 10.910156 4 L 7.5957031 13.59375 L 7.4726562 14 L 6.3671875 17 L 7 17 L 7 18 L 7.6582031 18 L 9.2832031 13.5625 L 14.716797 13.5625 L 16.341797 18 L 18 18 L 16.527344 14 L 16.404297 13.59375 L 13.089844 4 L 12.875 4 L 11.125 4 L 10.910156 4 z M 12.015625 5.9375 L 14.195312 12.28125 L 9.8046875 12.28125 L 12.015625 5.9375 z "
     class="ColorScheme-Text"
     />
 <path 
     style="fill:currentColor;fill-opacity:1;stroke:none" 
     d="M 4 16 L 4 20 L 8 20 L 8 16 L 4 16 z M 5 17 L 7 17 L 7 19 L 5 19 L 5 17 z "
     class="ColorScheme-Highlight"
     />
</svg>

<?xml version="1.0" encoding="UTF-8"?>
<svg viewBox="0 0 24 24" xmlns="http://www.w3.org/2000/svg">
 <defs id="defs3051">
  <style id="current-color-scheme" type="text/css">.ColorScheme-Text {
        color:#363636;
      }
      .ColorScheme-Highlight {
        color:#3daee9;
      }</style>
 </defs>
 <path class="ColorScheme-Text" d="m10.91 4-3.3145 9.5938-0.12305 0.40625-1.1055 3h0.63281v1h0.6582l1.625-4.4375h5.4336l1.625 4.4375h1.6582l-1.4727-4-0.12305-0.40625-3.3145-9.5938h-0.21484-1.75-0.21484zm1.1055 1.9375 2.1797 6.3438h-4.3906l2.2109-6.3438z" fill="currentColor"/>
 <path class="ColorScheme-Highlight" d="m4 16v4h4v-4h-4zm1 1h2v2h-2v-2z" fill="currentColor"/>
</svg>
